public/avatar/hat/30.svg

<svg xmlns:xlink="http://www.w3.org/1999/xlink" height="92.9" width="100.7" xmlns="http://www.w3.org/2000/svg"><use height="18.35" transform="translate(23.6 37.35)" width="27.9" xlink:href="#a"/><defs><g id="a"><path d="M3-11q.9-.55 2-.9 3.75.45 3.05 4l-.5 1.2Q5.3-7.15 3.8-8.2 2-9.5 3-11m3.75 5L5.6-4.85l-2.1.1q-2-.1-3.2-1.75l-.55-1.1q.9-1.65 2.3-2.75-.35 1.05.45 2.1 1.1 1.55 3 2.05l1.25.2M4.3-2.45v.05l-.95.75-.6.65.6-.65Q5.3-2.1 7-1.1 8.75 0 9.15 2.15 8.05.4 6.1-.25q-1.85-.6-3.85 0l.5-.75L.9-1.35Q-.95-1.8-2.15-3.2l.65-1.7Q0-3.35 1.9-2.75l2.4.3m6.3 3.6q-.7.2-1.15.65Q9.9.25 8.9-1.3 7.85-3.05 4.35-2.45q1.95-1.35 2.6-1.6 2.05 0 3.3 1.55 1.2 1.45.35 3.65M-10.1 4.3q-.55-.5-1.55-.7 2-.7 2.5-2.65.65-2.3-1.9-2.8l2.9.45q1.8.85 1.35 2.75-.3 1.2-1.45 1.8L-10.1 4.3m-3.1-1.45q-.85-.65-1.25-1.85-.7-2.15 3.2-2.9 1.4 1.2 1 2.8-.55 2-2.95 1.95m6.4-3.8L-8.05-2.8q-.7-1.6.5-3.1.95-1.15 2.45-1.95-1.6-.25-2.8.55-1.6 1.15-1.75 3.15-.55-.5-.65-1.25-.45-3.45 3.05-4 1.5.5 2.7 1.3 1.25.85 3.05 3.2Q-2.65-6-2.95-5.95q-1.75.35-3.15 1.4-1.7 1.35-.7 3.6" fill="#aed7ff" fill-rule="evenodd" transform="translate(15.05 12.4)"/><path d="M3-11q-1 1.5.8 2.8 1.5 1.05 3.75 1.5L7-6.25 6.75-6 5.5-6.2q-1.9-.5-3-2.05-.8-1.05-.45-2.1L3-11m2.6 6.15q-.85 1.05-1.3 2.4l-2.4-.3Q0-3.35-1.5-4.9l-.65 1.7Q-.95-1.8.9-1.35L2.75-1l-.5.75q2-.6 3.85 0 1.95.65 3.05 2.4Q8.75 0 7-1.1q-1.7-1-3.65-.55l.95-.75.05-.05q3.5-.6 4.55 1.15 1 1.55.55 3.1l-.3.35-.25.55q-.35.8-.3 2.05-9.4-4.3-18.1.7-.1-.7-.6-1.15l1.85-1.15q1.15-.6 1.45-1.8.45-1.9-1.35-2.75l1.35.45 1.05.8L-4.5 1.4-5.75-.15l-1.05-.8q-1-2.25.7-3.6 1.4-1.05 3.15-1.4.3-.05 1.45 1.05l.45-1.1.4-.85.4-.75.55 1.1q1.2 1.65 3.2 1.75l2.1-.1M-2.75 0q.1-1.6.6-3.2-.5 1.6-.6 3.2m9.7-4.05q.95-.4 2.05-.6 4.1.35 3.2 4.15-.3 1.3-1.6 1.65.85-2.2-.35-3.65Q9-4.05 6.95-4.05m-18.6 7.65-.05-.05q-.9-.2-1.5-.7 2.4.05 2.95-1.95.4-1.6-1-2.8l.2.05q2.55.5 1.9 2.8-.5 1.95-2.5 2.65m3.6-6.4L-9.45-4l-.2-.15q.15-2 1.75-3.15 1.2-.8 2.8-.55-1.5.8-2.45 1.95-1.2 1.5-.5 3.1M1.9.4l.35-.65L1.9.4" fill="#fff" fill-rule="evenodd" transform="translate(15.05 12.4)"/><path d="m7.55-6.7.5-1.2q.7-3.55-3.05-4-1.1.35-2 .9l-.95.65Q.65-9.25-.25-7.6l-.4.75-.4.85-.45 1.1-.65 1.7q-.5 1.6-.6 3.2m10.3-6.7L7-6.25 6.75-6 5.6-4.85q-.85 1.05-1.3 2.4m-.95.8-.6.65-.5.75L1.9.4m1.45-2.05.95-.75m2.65-1.65q.95-.4 2.05-.6 4.1.35 3.2 4.15-.3 1.3-1.6 1.65-.7.2-1.15.65l-.3.35m-.25.55q-.35.8-.3 2.05m-18.1.7q-.1-.7-.6-1.15-.55-.5-1.55-.7l-.05-.05q-.9-.2-1.5-.7-.85-.65-1.25-1.85-.7-2.15 3.2-2.9l.2.05 2.9.45 1.35.45-1.25-1.85-1.4-1.2-.2-.15q-.55-.5-.65-1.25-.45-3.45 3.05-4 1.5.5 2.7 1.3 1.25.85 3.05 3.2m5.85 2.45q1.95-1.35 2.6-1.6M-6.8-.95l1.05.8L-4.5 1.4" fill="none" stroke="#39c" stroke-linecap="round" stroke-linejoin="round" transform="translate(15.05 12.4)"/><path d="m9.15 2.15-.25.55" fill="none" stroke="#399" stroke-linecap="round" stroke-linejoin="round" transform="translate(15.05 12.4)"/></g></defs></svg>

<?xml version="1.0" encoding="UTF-8" standalone="no"?>
<svg xmlns:xlink="http://www.w3.org/1999/xlink" height="92.9px" width="100.7px" xmlns="http://www.w3.org/2000/svg">
  <g transform="matrix(1.0, 0.0, 0.0, 1.0, 38.65, 49.75)">
    <use height="18.35" transform="matrix(1.0, 0.0, 0.0, 1.0, -15.05, -12.4)" width="27.9" xlink:href="#shape0"/>
  </g>
  <defs>
    <g id="shape0" transform="matrix(1.0, 0.0, 0.0, 1.0, 15.05, 12.4)">
      <path d="M3.0 -11.0 Q3.9 -11.55 5.0 -11.9 8.75 -11.45 8.05 -7.9 L7.55 -6.7 Q5.3 -7.15 3.8 -8.2 2.0 -9.5 3.0 -11.0 M6.75 -6.0 L5.6 -4.85 3.5 -4.75 Q1.5 -4.85 0.3 -6.5 L-0.25 -7.6 Q0.65 -9.25 2.05 -10.35 1.7 -9.3 2.5 -8.25 3.6 -6.7 5.5 -6.2 L6.75 -6.0 M4.3 -2.45 L4.3 -2.4 3.35 -1.65 2.75 -1.0 3.35 -1.65 Q5.3 -2.1 7.0 -1.1 8.75 0.0 9.15 2.15 8.05 0.4 6.1 -0.25 4.25 -0.85 2.25 -0.25 L2.75 -1.0 0.9 -1.35 Q-0.95 -1.8 -2.15 -3.2 L-1.5 -4.9 Q0.0 -3.35 1.9 -2.75 L4.3 -2.45 M10.6 1.15 Q9.9 1.35 9.45 1.8 9.9 0.25 8.9 -1.3 7.85 -3.05 4.35 -2.45 6.3 -3.8 6.95 -4.05 9.0 -4.05 10.25 -2.5 11.45 -1.05 10.6 1.15 M-10.1 4.3 Q-10.65 3.8 -11.65 3.6 -9.65 2.9 -9.15 0.95 -8.5 -1.35 -11.05 -1.85 L-8.15 -1.4 Q-6.35 -0.55 -6.8 1.35 -7.1 2.55 -8.25 3.15 L-10.1 4.3 M-13.2 2.85 Q-14.05 2.2 -14.45 1.0 -15.15 -1.15 -11.25 -1.9 -9.85 -0.7 -10.25 0.9 -10.8 2.9 -13.2 2.85 M-6.8 -0.95 L-8.05 -2.8 Q-8.75 -4.4 -7.55 -5.9 -6.6 -7.05 -5.1 -7.85 -6.7 -8.1 -7.9 -7.3 -9.5 -6.15 -9.65 -4.15 -10.2 -4.65 -10.3 -5.4 -10.75 -8.85 -7.25 -9.4 -5.75 -8.9 -4.55 -8.1 -3.3 -7.25 -1.5 -4.9 -2.65 -6.0 -2.95 -5.95 -4.7 -5.6 -6.1 -4.55 -7.8 -3.2 -6.8 -0.95" fill="#aed7ff" fill-rule="evenodd" stroke="none"/>
      <path d="M3.0 -11.0 Q2.0 -9.5 3.8 -8.2 5.3 -7.15 7.55 -6.7 L7.0 -6.25 6.75 -6.0 5.5 -6.2 Q3.6 -6.7 2.5 -8.25 1.7 -9.3 2.05 -10.35 L3.0 -11.0 M5.6 -4.85 Q4.75 -3.8 4.3 -2.45 L1.9 -2.75 Q0.0 -3.35 -1.5 -4.9 L-2.15 -3.2 Q-0.95 -1.8 0.9 -1.35 L2.75 -1.0 2.25 -0.25 Q4.25 -0.85 6.1 -0.25 8.05 0.4 9.15 2.15 8.75 0.0 7.0 -1.1 5.3 -2.1 3.35 -1.65 L4.3 -2.4 4.35 -2.45 Q7.85 -3.05 8.9 -1.3 9.9 0.25 9.45 1.8 L9.15 2.15 8.9 2.7 Q8.55 3.5 8.6 4.75 -0.8 0.45 -9.5 5.45 -9.6 4.75 -10.1 4.3 L-8.25 3.15 Q-7.1 2.55 -6.8 1.35 -6.35 -0.55 -8.15 -1.4 L-6.8 -0.95 -5.75 -0.15 -4.5 1.4 -5.75 -0.15 -6.8 -0.95 Q-7.8 -3.2 -6.1 -4.55 -4.7 -5.6 -2.95 -5.95 -2.65 -6.0 -1.5 -4.9 L-1.05 -6.0 -0.65 -6.85 -0.25 -7.6 0.3 -6.5 Q1.5 -4.85 3.5 -4.75 L5.6 -4.85 M-2.75 0.0 Q-2.65 -1.6 -2.15 -3.2 -2.65 -1.6 -2.75 0.0 M6.95 -4.05 Q7.9 -4.45 9.0 -4.65 13.1 -4.3 12.2 -0.5 11.9 0.8 10.6 1.15 11.45 -1.05 10.25 -2.5 9.0 -4.05 6.95 -4.05 M-11.65 3.6 L-11.7 3.55 Q-12.6 3.35 -13.2 2.85 -10.8 2.9 -10.25 0.9 -9.85 -0.7 -11.25 -1.9 L-11.05 -1.85 Q-8.5 -1.35 -9.15 0.95 -9.65 2.9 -11.65 3.6 M-8.05 -2.8 L-9.45 -4.0 -9.65 -4.15 Q-9.5 -6.15 -7.9 -7.3 -6.7 -8.1 -5.1 -7.85 -6.6 -7.05 -7.55 -5.9 -8.75 -4.4 -8.05 -2.8 M1.9 0.4 L2.25 -0.25 1.9 0.4" fill="#ffffff" fill-rule="evenodd" stroke="none"/>
      <path d="M7.55 -6.7 L8.05 -7.9 Q8.75 -11.45 5.0 -11.9 3.9 -11.55 3.0 -11.0 L2.05 -10.35 Q0.65 -9.25 -0.25 -7.6 L-0.65 -6.85 -1.05 -6.0 -1.5 -4.9 -2.15 -3.2 Q-2.65 -1.6 -2.75 0.0 M7.55 -6.7 L7.0 -6.25 6.75 -6.0 5.6 -4.85 Q4.75 -3.8 4.3 -2.45 M3.35 -1.65 L2.75 -1.0 2.25 -0.25 1.9 0.4 M3.35 -1.65 L4.3 -2.4 M6.95 -4.05 Q7.9 -4.45 9.0 -4.65 13.1 -4.3 12.2 -0.5 11.9 0.8 10.6 1.15 9.9 1.35 9.45 1.8 L9.15 2.15 M8.9 2.7 Q8.55 3.5 8.6 4.75 M-9.5 5.45 Q-9.6 4.75 -10.1 4.3 -10.65 3.8 -11.65 3.6 L-11.7 3.55 Q-12.6 3.35 -13.2 2.85 -14.05 2.2 -14.45 1.0 -15.15 -1.15 -11.25 -1.9 L-11.05 -1.85 -8.15 -1.4 -6.8 -0.95 -8.05 -2.8 -9.45 -4.0 -9.65 -4.15 Q-10.2 -4.65 -10.3 -5.4 -10.75 -8.85 -7.25 -9.4 -5.75 -8.9 -4.55 -8.1 -3.3 -7.25 -1.5 -4.9 M4.35 -2.45 Q6.3 -3.8 6.95 -4.05 M-6.8 -0.95 L-5.75 -0.15 -4.5 1.4" fill="none" stroke="#3399cc" stroke-linecap="round" stroke-linejoin="round" stroke-width="1.0"/>
      <path d="M9.15 2.15 L8.9 2.7" fill="none" stroke="#339999" stroke-linecap="round" stroke-linejoin="round" stroke-width="1.0"/>
    </g>
  </defs>
</svg>
